X:43
T:First of January. JJo8.043, The
%%VWML:JohnsonVol8-2184-p22-0
F:http://www.vwml.org/record/JohnsonVol8/2184/p22
Z:Transcribed by Simon Furey and Lewis Jones
Z:vmp.Simon Wilson 2013 www.village-music-project.org.uk
Z:Dance added by John Chambers 2017
M:2/4
L:1/8
%Q:1/2=60
K:G
|:\
G2cB/A/ | BGFE | DcBA | Gedc | B>G c>A | BGFE | Dd ^c/d/e/c/ | d2d2 :|
d>e (dc/d/) | ecc2 | c>d (cB/c/) | dBB2 | G>B (BG/A/) | BGFE | D>c c>B | B2A2 |
(g/f/g/a/) gd | (g/f/g/a/) gd | g/f/g/a/ gG | ((3FGA) FD | ((3GAB) ((3ABc) | ((3Bcd) ec | B2A2 | G4 |]
W: Cast off and cross over :||. cast up and cross up to
W:the Top Cross over half figure. Right and Left at
W:Top foot it Corners and turn. Lead out Sides
W:and turn your Partner :||:
W:
T:Namptwich Fair. JJo8.044
B:J.Johnson Choice Collection Vol 8 1758
Z:vmp.Simon Wilson 2013 www.village-music-project.org.uk
Z:Dance added by John Chambers 2017
N:The 2nd strain has initial repeat but no final repeat; the dance implies AAB form.
M:9/8
L:1/8
%Q:3/8=120
K:Dm
|: B2G ^F2A D2c |  B2G G2B (AcA) | B2G ^F2A C3 | D2F F2B (AcA) :|
[| BAB  cBc d3  | _e2c c2F  AcA  | BAB  cBc d3 | c2F F2B  AcA  |]
W: Foot it and half Right and
W:Left .|. the same back again
W:.||. Lead thro' the 3d Cu.
W:Right and Left at Top :||:
W:
